X:88
T:Church Street
T:Memories Of Ballymote
R:polka
D:Chieftains 1.
Z:id:hn-polka-88
M:2/4
L:1/8
K:G
d/c/|:BG D>D|Ec cA/B/|cE F>E|Dd d/e/d/c/|
BG D>D|Ec cA/B/|c/B/A/G/ F/D/E/F/|1 GB Gd/c/:|2 GB GB/d/||
|:gg ff|c7/2 e/|ee dd|B3 B/c/|
d>e dB|A2 AB/A/|1 G>A Bc|d2 de/f/:|2 Gg fa|g2 g||
<end>
<start>
